images/icons/insects.svg

<svg width="52" height="52" viewBox="0 0 52 52" fill="none" xmlns="http://www.w3.org/2000/svg">
<path d="M26 0C11.6406 0 0 11.6406 0 26C0 40.3594 11.6406 52 26 52C40.3594 52 52 40.3594 52 26C51.9838 11.6473 40.3527 0.0162388 26 0ZM26 50.2667C12.5979 50.2667 1.73333 39.4021 1.73333 26C1.73333 12.5979 12.5979 1.73333 26 1.73333C39.4021 1.73333 50.2667 12.5979 50.2667 26C50.2514 39.3958 39.3958 50.2514 26 50.2667Z" fill="black"/>
<path d="M40.9145 9.47271C40.9049 9.23124 40.7949 9.00473 40.6111 8.84784C36.034 4.94534 30.0854 3.03696 24.0922 3.54837C18.099 4.05978 12.5598 6.94845 8.70999 11.57C8.68334 11.5968 8.65899 11.6258 8.63719 11.6567C1.66445 20.0789 1.75329 32.2939 8.84779 40.6138C9.00468 40.7976 9.23119 40.9075 9.47266 40.9171H9.50732C9.73716 40.9171 9.95756 40.8257 10.1201 40.6632L40.6614 10.1218C40.8328 9.95039 40.9246 9.71496 40.9145 9.47271ZM9.57232 38.7574C3.72067 31.2325 3.74354 20.6901 9.62779 13.1907L15.1303 15.0228L17.1695 19.7782C17.2294 19.916 17.3244 20.0355 17.4451 20.1249L19.3613 21.567C17.6176 21.3235 15.8357 21.047 14.4777 20.7749C13.7566 20.631 13.0641 20.4586 12.4185 20.2974C10.3835 19.7886 8.77846 19.3891 7.71592 20.2176C7.10732 20.7556 6.79101 21.5511 6.86399 22.36C6.86399 23.784 7.45246 28.2776 14.5401 28.9727L13.4481 30.1167C13.341 30.2282 13.2661 30.3665 13.2314 30.5171L11.8309 36.4971L9.57232 38.7574ZM23.4 19.9178C23.4 19.4391 23.788 19.0511 24.2667 19.0511C24.7453 19.0511 25.1333 19.4391 25.1333 19.9178C25.1307 19.9568 25.1255 19.9956 25.1177 20.0339C24.6384 20.1449 24.1826 20.3403 23.7718 20.6111C23.5409 20.4556 23.4018 20.1961 23.4 19.9178ZM27.9197 20.4109C27.5917 20.2395 27.2417 20.1138 26.8797 20.0374C26.8723 19.9973 26.868 19.9568 26.8667 19.916C26.8719 19.4424 27.2596 19.0624 27.7333 19.0667C28.1423 19.0698 28.4911 19.3636 28.5636 19.7661L27.9197 20.4109ZM23.4407 24.8898C23.419 24.7678 23.4054 24.6445 23.4 24.5206C23.3388 23.0126 24.5062 21.7379 26.0139 21.6667C26.2068 21.6694 26.3986 21.6958 26.585 21.7456L23.4407 24.8898ZM16.8428 29.0706C17.7095 29.0646 18.5475 29.036 19.3509 28.984L14.1509 34.1796L14.8607 31.1463L16.8428 29.0706ZM21.2975 27.0331C19.6963 27.2478 18.0822 27.3515 16.4667 27.3434C16.2448 27.3434 16.0333 27.3356 15.8106 27.326C11.2268 27.1744 8.59732 25.3639 8.59732 22.36C8.56062 22.0893 8.62681 21.8147 8.78279 21.5904C9.17886 21.281 10.7423 21.6719 11.999 21.9856C12.6698 22.1538 13.3857 22.3323 14.1371 22.4814C16.2474 22.9069 19.3241 23.3324 21.7507 23.6392C21.695 23.9298 21.6659 24.2248 21.6641 24.5206C21.6626 24.8656 21.7004 25.2095 21.7767 25.5459C21.8333 25.8076 21.9139 26.0635 22.0177 26.3103L21.2975 27.0331ZM29.8775 18.4531C29.2144 17.4784 27.9719 17.0817 26.8667 17.492V12.1334C26.8667 11.6547 26.4786 11.2667 26 11.2667C25.5213 11.2667 25.1333 11.6547 25.1333 12.1334V17.492C24.3414 17.2005 23.457 17.3152 22.7657 17.7991C22.0744 18.283 21.6638 19.0748 21.6667 19.9186C21.6669 20.5609 21.9085 21.1796 22.3435 21.652L18.6715 18.889L16.5698 13.988C16.4729 13.761 16.2837 13.586 16.0498 13.507L10.8498 11.7737C18.1868 3.94124 30.2825 2.98748 38.7565 9.57324L29.8775 18.4531Z" fill="black"/>
<path d="M41.8799 11.3386L17.549 35.6694L11.3394 41.879C11.1684 42.05 11.0766 42.2846 11.0861 42.5262C11.0957 42.7678 11.2057 42.9944 11.3896 43.1513C16.1207 47.184 22.3084 49.0812 28.4868 48.3935C34.6652 47.7058 40.2843 44.4943 44.0127 39.52C44.0223 39.5096 44.0361 39.5061 44.0448 39.4957C44.0581 39.4744 44.0702 39.4524 44.0812 39.4298C50.3484 31.0092 49.9629 19.3745 43.1521 11.3871C42.9952 11.2033 42.7687 11.0933 42.5272 11.0838C42.2859 11.0778 42.0524 11.1697 41.8799 11.3386ZM35.4986 27.3433C33.5239 27.3546 31.552 27.1937 29.6052 26.8623L29.2161 26.4567L32.3014 23.3714C33.9559 23.1486 36.1685 22.8245 37.8646 22.4822C38.6142 22.3331 39.3379 22.1537 40.0044 21.9856C41.261 21.6727 42.8254 21.2818 43.2206 21.5904C43.3766 21.8146 43.4427 22.0893 43.406 22.36C43.406 25.3638 40.7766 27.1743 36.1867 27.3268C35.9666 27.3355 35.7551 27.3433 35.4986 27.3433ZM27.7332 36.8593C27.7332 42.4666 26.6066 42.4666 25.9999 42.4666C25.3932 42.4666 24.2666 42.4666 24.2666 36.8593C24.2666 35.1823 24.3663 33.2453 24.5578 31.1116L27.1734 28.496C27.5107 31.2716 27.6976 34.0635 27.7332 36.8593ZM17.2622 38.4072L17.712 42.692L16.4917 44.4851C15.3474 43.9009 14.2597 43.2118 13.2426 42.4268L17.2622 38.4072ZM18.0873 45.2209L19.3266 43.4052C19.4419 43.2358 19.4935 43.031 19.4722 42.8272L18.8525 36.9338L18.921 36.7536L22.6771 32.9974C22.5835 34.3858 22.5332 35.6867 22.5332 36.8593C22.5332 41.2654 23.1226 44.2 25.9999 44.2C28.8772 44.2 29.4666 41.2654 29.4666 36.8593C29.4349 34.1242 29.2585 31.3927 28.9379 28.6762L30.6946 30.5118L33.1499 36.9312L32.5302 42.8246C32.5085 43.029 32.5608 43.2344 32.6776 43.4035L33.923 45.2235C28.8525 47.322 23.1559 47.3195 18.0873 45.2166V45.2209ZM35.515 44.4868L34.2878 42.6911L34.8945 36.9061C34.9083 36.7706 34.8902 36.6338 34.8416 36.5066L32.2503 29.7292C32.2094 29.6212 32.1469 29.5227 32.0666 29.4398L31.5249 28.8738C32.6747 28.9894 33.8843 29.0544 35.1537 29.0688L37.147 31.1549L38.3932 35.6928C38.4408 35.8621 38.5383 36.0132 38.6732 36.1261L42.1719 39.0606C40.3518 41.31 38.0852 43.1576 35.515 44.4868ZM46.7999 26C46.8045 30.162 45.5531 34.2285 43.2093 37.6679L39.9896 34.9734L38.7607 30.4858C38.7235 30.3471 38.6516 30.22 38.5519 30.1166L37.4598 28.9726C44.5475 28.2793 45.1359 23.7839 45.1359 22.36C45.2066 21.5533 44.8905 20.761 44.284 20.2245C43.2223 19.3951 41.6164 19.7955 39.5814 20.3042C38.9358 20.4654 38.2433 20.6379 37.5196 20.7826C36.5663 20.975 35.4396 21.1622 34.3407 21.3286L42.4276 13.2426C45.2614 16.8915 46.7997 21.3799 46.7999 26Z" fill="black"/>
</svg>

<svg width="52" height="52" fill="none" xmlns="http://www.w3.org/2000/svg"><path d="M26 0C11.64 0 0 11.64 0 26s11.64 26 26 26 26-11.64 26-26C51.984 11.647 40.353.016 26 0zm0 50.267C12.598 50.267 1.733 39.402 1.733 26S12.598 1.733 26 1.733 50.267 12.598 50.267 26C50.25 39.396 39.396 50.251 26 50.267z" fill="#000"/><path d="M40.914 9.473a.867.867 0 0 0-.303-.625A22.51 22.51 0 0 0 8.71 11.57a.674.674 0 0 0-.073.087c-6.973 8.422-6.884 20.637.21 28.957a.867.867 0 0 0 .626.303h.034c.23 0 .45-.091.613-.254l30.541-30.541a.867.867 0 0 0 .253-.65zM9.572 38.757a20.766 20.766 0 0 1 .056-25.566l5.502 1.832 2.04 4.755c.06.138.154.258.275.347l1.916 1.442c-1.743-.244-3.525-.52-4.883-.792a43.906 43.906 0 0 1-2.06-.478c-2.034-.508-3.64-.908-4.702-.08a2.553 2.553 0 0 0-.852 2.143c0 1.424.588 5.918 7.676 6.613l-1.092 1.144a.855.855 0 0 0-.217.4l-1.4 5.98-2.259 2.26zM23.4 19.917a.867.867 0 1 1 1.733 0 .873.873 0 0 1-.015.117c-.48.11-.935.306-1.346.577a.842.842 0 0 1-.372-.693zm4.52.494a4.053 4.053 0 0 0-1.04-.374.81.81 0 0 1-.013-.121.859.859 0 0 1 .866-.85.85.85 0 0 1 .83.7l-.643.645zm-4.48 4.479a2.746 2.746 0 0 1 2.573-3.223c.194.002.386.029.572.079l-3.144 3.144zm-6.597 4.18a43.588 43.588 0 0 0 2.508-.086l-5.2 5.196.71-3.034 1.982-2.075zm4.454-2.037a35.028 35.028 0 0 1-4.83.31c-.222 0-.434-.007-.656-.017-4.584-.152-7.214-1.962-7.214-4.966-.036-.27.03-.545.186-.77.396-.309 1.96.082 3.216.396.67.168 1.387.346 2.138.495 2.11.426 5.187.851 7.614 1.158-.056.29-.085.586-.087.882-.001.345.036.688.113 1.025.056.262.137.518.24.764l-.72.723zm8.58-8.58a2.563 2.563 0 0 0-3.01-.961v-5.359a.867.867 0 0 0-1.734 0v5.359a2.577 2.577 0 0 0-2.79 4.16l-3.671-2.763-2.102-4.901a.867.867 0 0 0-.52-.481l-5.2-1.733c7.337-7.833 19.432-8.787 27.907-2.2l-8.88 8.88zM41.88 11.339l-24.331 24.33-6.21 6.21a.867.867 0 0 0 .05 1.272 22.516 22.516 0 0 0 32.624-3.631c.01-.01.023-.014.032-.024a.716.716 0 0 0 .036-.066 22.508 22.508 0 0 0-.929-28.043.866.866 0 0 0-.625-.303.894.894 0 0 0-.647.255zm-6.381 16.004a33.96 33.96 0 0 1-5.894-.48l-.389-.406 3.085-3.086c1.655-.222 3.867-.546 5.564-.889.75-.149 1.473-.328 2.14-.496 1.256-.313 2.82-.704 3.216-.396.156.225.222.5.185.77 0 3.004-2.63 4.814-7.22 4.967-.22.008-.43.016-.687.016zm-7.766 9.516c0 5.608-1.126 5.608-1.733 5.608-.607 0-1.733 0-1.733-5.608 0-1.677.1-3.614.29-5.747l2.616-2.616c.338 2.776.525 5.567.56 8.363zm-10.47 1.548.449 4.285-1.22 1.793a20.79 20.79 0 0 1-3.25-2.058l4.02-4.02zm.824 6.814 1.24-1.816a.867.867 0 0 0 .145-.578l-.62-5.893.069-.18 3.756-3.757a58.137 58.137 0 0 0-.144 3.862c0 4.406.59 7.341 3.467 7.341 2.877 0 3.467-2.935 3.467-7.34a77.479 77.479 0 0 0-.53-8.184l1.758 1.836 2.455 6.42-.62 5.893c-.022.204.03.41.148.578l1.245 1.82a20.683 20.683 0 0 1-15.836-.006v.004zm17.428-.734-1.227-1.796.607-5.785a.872.872 0 0 0-.053-.4L32.25 29.73a.847.847 0 0 0-.183-.29l-.542-.565c1.15.115 2.36.18 3.629.195l1.993 2.086 1.246 4.538c.048.17.145.32.28.433l3.499 2.935a20.932 20.932 0 0 1-6.657 5.426zM46.8 26a20.679 20.679 0 0 1-3.59 11.668l-3.22-2.695-1.23-4.487a.849.849 0 0 0-.208-.37l-1.092-1.143c7.087-.694 7.676-5.19 7.676-6.613a2.553 2.553 0 0 0-.852-2.136c-1.062-.829-2.668-.428-4.703.08-.645.161-1.338.334-2.061.479-.954.192-2.08.38-3.18.546l8.088-8.086A20.8 20.8 0 0 1 46.8 26z" fill="#000"/></svg>
